app/assets/images/payment_icons/generic.svg

<svg xmlns="http://www.w3.org/2000/svg" width="38" height="24" viewBox="0 0 38 24"><path opacity=".07" enable-background="new" d="M35 0h-32c-1.7 0-3 1.3-3 3v18c0 1.7 1.4 3 3 3h32c1.7 0 3-1.3 3-3v-18c0-1.7-1.4-3-3-3z"/><path fill="#fff" d="M35 1c1.1 0 2 .9 2 2v18c0 1.1-.9 2-2 2h-32c-1.1 0-2-.9-2-2v-18c0-1.1.9-2 2-2h32"/><path fill="#999" d="M0 5h38v4h-38v-4z"/><path opacity=".15" enable-background="new" d="M5 17h10v2h-10v-2zm24 0h4v2h-4v-2z"/></svg>

<svg xmlns="http://www.w3.org/2000/svg" width="38" height="24" viewBox="0 0 38 24"><path opacity=".07" d="M35 0H3C1.3 0 0 1.3 0 3v18c0 1.7 1.4 3 3 3h32c1.7 0 3-1.3 3-3V3c0-1.7-1.4-3-3-3z"/><path fill="#fff" d="M35 1c1.1 0 2 .9 2 2v18c0 1.1-.9 2-2 2H3c-1.1 0-2-.9-2-2V3c0-1.1.9-2 2-2h32"/><path fill="#999" d="M0 5h38v4H0V5z"/><path opacity=".15" d="M5 17h10v2H5v-2zm24 0h4v2h-4v-2z"/></svg>
